/* XPM */
static const char *revaplayer_xpm[] = {
"32 32 7 1",
" 	c None",
".	c #102033",
"+	c #1F5F8B",
"@	c #0F1620",
"#	c #5AD4FF",
"$	c #8BF7C9",
	"%	c #D7FBFF",
	"++++++++++++++++++++++++++++++++",
	"++++++++++++++++++++++++++++++++",
	"++++......................++++++",
	"+++..@@@@@@@@@@@@@@@@@@@@..+++++",
"++..@@@@@@@@@@@@@@@@@@@@@@..++++",
"++..@@@@@@@@@@@@@@@@@@@@@@..++++",
"+..@@@@@@@@@@@@@@@@@@@@@@@@..+++",
"+..@@@@@@@@@@@@@@@@@@@@@@@@..+++",
"+..@@@@@@@##@@@@@@@@@@@@@@@@..++",
"+..@@@@@@####@@@@@@@@@@@@@@@..++",
"+..@@@@@######@@@@@@@@@@@@@@..++",
"+..@@@@########@@@@@@@@@@@@@..++",
"+..@@@@##########@@@@@@@@@@@..++",
"+..@@@@##########@@@@@@@@@@@..++",
"+..@@@@###########@@@@@@@@@@..++",
"+..@@@@##########@@@@@@@@@@@..++",
"+..@@@@##########@@@@@@@@@@@..++",
"+..@@@@########@@@@@@@@@@@@@..++",
"+..@@@@@######@@@@@@@@@@@@@@..++",
"+..@@@@@@####@@@@@@@@@@@@@@@..++",
"+..@@@@@@@##@@@@@@@@@@@@@@@@..++",
"+..@@@@@@@@@@@@@@@@@@@@@@@@..+++",
"+..@@@@@@@@@@@@@@@@@@@@@@@@..+++",
"++..@@@@@@@@@@@@@@@@@@@@@@..++++",
"++..@@@@@@@@@@@@@@@@@@@@@@..++++",
"+++..@@@@@@@@@@@@@@@@@@@@..+++++",
"++++......................++++++",
	"++++++++++++++%%%%++++++++++++++",
	"+++++++++++++%%%%%%+++++++++++++",
	"++++++++++++++%%%%++++++++++++++",
	"++++++++++++++++++++++++++++++++",
	"++++++++++++++++++++++++++++++++",
};
